X: 1034
T: The Mooncoin Jig
R:double jig
N:"transcribed by Fielding"
B:O'Neill's 1034
Z:Transcribed by henrik.norbeck@mailbox.swipnet.se
M:6/8
L:1/8
K:A
(e/d/)|cBA AEA|AEA Bcd|cBA Ace|dBG Bcd|
cBA AEA|AEA Bcd|Ace gfe|dBG Bcd:|
cde ef=g|(f/g/a)f ged|cde ef=g|(f/g/a)A Bcd|
cde efg|afd bge|afd gec|dBG Bcd:|
cBA Aaf|ecA Bcd|cBA =gfe|dBG Bcd|
cBA Aaa|Agg Aff|Aee efg|dBG Bcd:|


